X: 12844
T: Fencing Post, The
R: reel
M: 4/4
K: Amajor
|:E2|A2 cA EAcA|eAce fece|agfa ecAB|c2 B2 B2 cB|
A3 B c2 BA|eAce fece|aefa ecAB|c2 A2 A2:|
fg|a2 ea caga|eAce fece|agfa ecAB|c2 B2 B2 fg|
a2 ea caga|eAce fece|agfa ecAB|c2 A2 A2 fg|
a2 ea caga|eAce fece|agfa ecAB|c2 B2 B2 cB|
A3 B c2 BA|eAce fece|aefa ecAB|c2 A2 A2 z2||

